components/Company/logos/logo-doordash.svg

<svg height="140" viewBox="0 0 400 140" width="400" xmlns="http://www.w3.org/2000/svg"><path d="m101.531818 11.5318182v17.875h4.456818c2.297921-.0341219 4.484271-.9965419 6.061364-2.6681818 1.602217-1.6962578 2.478851-3.9510419 2.443182-6.2840909.068619-2.3405127-.798372-4.6118659-2.409091-6.3113637-1.584336-1.6746807-3.790107-2.6204812-6.095455-2.6136732h-4.454545zm4.456818-5.60454547c8.306819 0 14.590909 6.43636367 14.590909 14.52727277 0 8.090909-6.28409 14.5636363-14.590909 14.5636363h-9.8295451c-.189273-.0023957-.3698404-.0798897-.5019716-.2154307-.1321312-.1355411-.2050003-.3180239-.2026326-.5072966v-27.61590905c0-.4.3159678-.725.7046042-.725zm36.002273 24.10231427c3.772727.0113221 7.179546-2.3091325 8.631818-5.879587 1.453405-3.5639988.671367-7.6496557-1.995454-10.425-2.625442-2.735312-6.665586-3.5686484-10.159091-2.0954545-3.486364 1.4727272-5.763637 4.9568181-5.770455 8.825 0 5.2727272 4.154546 9.55 9.295455 9.5750415m0-24.76140518c8.743182 0 15.427273 6.89090908 15.427273 15.18636368 0 8.2954545-6.684091 15.1863636-15.429546 15.1863636-8.743182 0-15.370454-6.8568182-15.370454-15.1863636 0-8.3295455 6.68409-15.18636368 15.370454-15.18636368m36.668182 24.76136368c5.143182-.0136364 9.304545-4.2954546 9.300004-9.5681819-.006822-5.2772727-4.177277-9.55-9.318186-9.5522727-5.145454 0-9.318182 4.2704546-9.325 9.5454546 0 2.540909.984091 4.9772727 2.736364 6.7727272 1.732776 1.7876287 4.114944 2.7983695 6.604545 2.8022728m0-24.76136368c8.715909 0 15.4 6.85681818 15.4 15.18636368 0 8.3295454-6.711363 15.1863636-15.4 15.1863636-8.686363 0-15.427273-6.8568182-15.427273-15.1863636 0-8.3295455 6.684091-15.18636368 15.427273-15.18636368m35.786364 6.26363638h-6.284091v7.6931818h6.284091c1.003573.0444926 1.980843-.3281533 2.7-1.0295455.727273-.7045454 1.140909-1.6818181 1.15-2.7090909.037007-1.0530843-.356952-2.0757347-1.090909-2.8318181-.721027-.7446401-1.723133-1.1499399-2.759091-1.1159091zm-12.363637-4.85227275c0-.4.318182-.725.706819-.725h11.831818c5.640909 0 9.722727 4.23863635 9.722727 9.56136365.043182 3.6-1.922727 6.9068182-5.061364 8.5181818l5.456819 9.8931818c.153947.2318666.16449.5305843.027272.7727273-.134202.2387069-.395278.3772366-.668181.3545455h-4.788637c-.271048.003843-.520264-.1481606-.640909-.3909091l-5.259091-9.7909091h-5.270454v9.4c.003035.1896633-.069564.3727316-.20176.5087663-.132197.1360347-.313113.2138416-.502786.2162337h-4.613636c-.189673-.0023921-.370589-.080199-.502786-.2162337-.132196-.1360347-.204795-.319103-.20176-.5087663l-.031818-27.59090912zm38.106819 4.98863635v17.8772727h4.454545c2.297369-.0311393 4.484453-.9902427 6.063636-2.6590909 1.602977-1.6942752 2.481224-3.9473835 2.447728-6.2795454.073502-2.3434417-.791203-4.6193259-2.402273-6.3227273-1.587043-1.6775657-3.797525-2.6236224-6.106818-2.6136364zm4.454545-5.61136362c8.306818 0 14.590909 6.44318182 14.590909 14.55000002s-6.284091 14.55-14.590909 14.55h-9.8c-.189672-.0023921-.370589-.080199-.502785-.2162337-.132197-.1360347-.204796-.319103-.201852-.5087663v-27.61363638c0-.40227273.316001-.72727273.704637-.72727273l9.802273-.03409091zm33.127273 7.10909092-3.447727 9.5590909h6.888636zm-5.470455 14.9613636-2.256818 6.3636364c-.093121.3079953-.383075.5137695-.704545.5h-4.895455c-.253941.0236662-.500562-.0931082-.643182-.3045455-.145474-.2135872-.168746-.487671-.061363-.7227272l10.577272-27.5886364c.101395-.29897218.389291-.49399858.704546-.47727273h5.477273c.316075-.01777495.605196.17745139.706818.47727273l10.577272 27.5886364c.106717.235447.082582.5095513-.063636.7227272-.143174.2105745-.389692.3264295-.643182.3022728h-4.893182c-.32147.0137695-.611424-.1920047-.704545-.5l-2.256818-6.3636364h-10.920455zm25.156818-14.3409091c0-4.56818178 3.85-8.51818178 9.929546-8.51818178 3.273892-.07310871 6.443829 1.15156559 8.818182 3.40681818.146236.13823505.229098.33058699.229098.53181818 0 .2012312-.082862.39358314-.229098.53181818l-2.711364 2.76136364c-.131033.1355386-.311478.2120737-.5.2120737s-.368966-.0765351-.5-.2120737c-1.277102-1.1969969-2.954386-1.8752028-4.704545-1.9022727-2.431819 0-4.229546 1.4477272-4.229546 3.1181818 0 5.4 14.370455 2.2840909 14.370455 12.675-.006818 5.2659091-3.886364 9.25-10.745455 9.25-3.848363.0394158-7.548011-1.4844031-10.252273-4.2227273-.146236-.138235-.229098-.330587-.229098-.5318182s.082862-.3935831.229098-.5318181l2.622728-2.6909091c.132022-.1422219.31731-.2230373.511363-.2230373.194054 0 .379342.0808154.511364.2230373 1.650746 1.6361849 3.873633 2.5654447 6.197727 2.5909091 3.038637 0 5.040909-1.6636364 5.040909-3.7477273 0-5.4022727-14.363636-2.2840909-14.363636-12.6772727m46.536364-7.18636368v10.91818178h-12.163637v-10.91818178c.002427-.18927265-.070442-.3717555-.202574-.50729652-.132131-.13554103-.312698-.21303499-.501971-.21543075h-4.613637c-.189273.00239576-.36984.07988972-.501971.21543075-.132131.13554102-.205.31802387-.202633.50729652v27.58409088c0 .4.318241.725.704604.725h4.613637c.386363 0 .704545-.325.704545-.725v-11.0909091h12.154546v11.0909091c0 .4.318182.725.704545.725h4.613637c.388636 0 .704604-.325.704604-.725v-27.58409088c.002367-.18927265-.070502-.3717555-.202633-.50729652-.132131-.13554103-.312698-.21303499-.501971-.21543075h-4.613637c-.390571.00992075-.700557.33206299-.695454.72272727zm-274.4295458 2.95909091c-3.2-5.93181818-9.4613637-9.625-16.2704546-9.60237703h-51.51818178c-.71124231.00299133-1.35189789.43069157-1.62727273 1.08646794-.2715252.65199245-.12050113 1.40351697.38181818 1.9l11.22272723 11.13636366c.9909091.9863636 2.3409091 1.5386363 3.7454546 1.5386363h36.3181818c2.5886364-.0272727 4.7045455 2.0227273 4.7318182 4.575.0272727 2.5522728-2.0477273 4.6431819-4.6363636 4.6681819h-25.0386364c-.7118004.0002922-1.3543986.4263044-1.6318182 1.0818181-.2741654.6528002-.1239222 1.4067151.3795455 1.9045455l11.2295454 11.1454545c.9971234.9858636 2.3432494 1.5380367 3.7454546 1.5363675h11.325c14.7340909 0 25.875-15.5454584 17.6431818-30.97727655" fill="#ff3008" transform="translate(20 50)"/></svg>

<?xml version="1.0" encoding="UTF-8"?>
<svg width="400px" height="140px" viewBox="0 0 400 140" version="1.1" xmlns="http://www.w3.org/2000/svg" xmlns:xlink="http://www.w3.org/1999/xlink">
    <title>Artboard</title>
    <g id="Artboard" stroke="none" stroke-width="1" fill="none" fill-rule="evenodd">
        <g id="DoorDash_Logo" transform="translate(20.000000, 50.000000)" fill="#FF3008" fill-rule="nonzero">
            <path d="M101.531818,11.5318182 L101.531818,29.4068182 L105.988636,29.4068182 C108.286557,29.3726963 110.472907,28.4102763 112.05,26.7386364 C113.652217,25.0423786 114.528851,22.7875945 114.493182,20.4545455 C114.561801,18.1140328 113.69481,15.8426796 112.084091,14.1431818 C110.499755,12.4685011 108.293984,11.5227006 105.988636,11.5295086 L101.534091,11.5295086 L101.531818,11.5318182 Z M105.988636,5.92727273 C114.295455,5.92727273 120.579545,12.3636364 120.579545,20.4545455 C120.579545,28.5454545 114.295455,35.0181818 105.988636,35.0181818 L96.1590909,35.0181818 C95.9698179,35.0157861 95.7892505,34.9382921 95.6571193,34.8027511 C95.5249881,34.66721 95.452119,34.4847272 95.4544867,34.2954545 L95.4544867,6.67954545 C95.4544867,6.27954545 95.7704545,5.95454545 96.1590909,5.95454545 L105.988636,5.92727273 L105.988636,5.92727273 Z M141.990909,30.029587 C145.763636,30.0409091 149.170455,27.7204545 150.622727,24.15 C152.076132,20.5860012 151.294094,16.5003443 148.627273,13.725 C146.001831,10.989688 141.961687,10.1563516 138.468182,11.6295455 C134.981818,13.1022727 132.704545,16.5863636 132.697727,20.4545455 C132.697727,25.7272727 136.852273,30.0045455 141.993182,30.029587 M141.993182,5.26818182 C150.736364,5.26818182 157.420455,12.1590909 157.420455,20.4545455 C157.420455,28.75 150.736364,35.6409091 141.990909,35.6409091 C133.247727,35.6409091 126.620455,28.7840909 126.620455,20.4545455 C126.620455,12.125 133.304545,5.26818182 141.990909,5.26818182 M178.659091,30.0295455 C183.802273,30.0159091 187.963636,25.7340909 187.959095,20.4613636 C187.952273,15.1840909 183.781818,10.9113636 178.640909,10.9090909 C173.495455,10.9090909 169.322727,15.1795455 169.315909,20.4545455 C169.315909,22.9954545 170.3,25.4318182 172.052273,27.2272727 C173.785049,29.0149014 176.167217,30.0256422 178.656818,30.0295455 M178.656818,5.26818182 C187.372727,5.26818182 194.056818,12.125 194.056818,20.4545455 C194.056818,28.7840909 187.345455,35.6409091 178.656818,35.6409091 C169.970455,35.6409091 163.229545,28.7840909 163.229545,20.4545455 C163.229545,12.125 169.913636,5.26818182 178.656818,5.26818182 M214.443182,11.5318182 L208.159091,11.5318182 L208.159091,19.225 L214.443182,19.225 C215.446755,19.2694926 216.424025,18.8968467 217.143182,18.1954545 C217.870455,17.4909091 218.284091,16.5136364 218.293182,15.4863636 C218.330189,14.4332793 217.93623,13.4106289 217.202273,12.6545455 C216.481246,11.9099054 215.47914,11.5046056 214.443182,11.5386364 L214.443182,11.5318182 L214.443182,11.5318182 Z M202.079545,6.67954545 C202.079545,6.27954545 202.397727,5.95454545 202.786364,5.95454545 L214.618182,5.95454545 C220.259091,5.95454545 224.340909,10.1931818 224.340909,15.5159091 C224.384091,19.1159091 222.418182,22.4227273 219.279545,24.0340909 L224.736364,33.9272727 C224.890311,34.1591393 224.900854,34.457857 224.763636,34.7 C224.629434,34.9387069 224.368358,35.0772366 224.095455,35.0545455 L219.306818,35.0545455 C219.03577,35.0583885 218.786554,34.9063849 218.665909,34.6636364 L213.406818,24.8727273 L208.136364,24.8727273 L208.136364,34.2727273 C208.139399,34.4623906 208.0668,34.6454589 207.934604,34.7814936 C207.802407,34.9175283 207.621491,34.9953352 207.431818,34.9977273 L202.818182,34.9977273 C202.628509,34.9953352 202.447593,34.9175283 202.315396,34.7814936 C202.1832,34.6454589 202.110601,34.4623906 202.113636,34.2727273 L202.081818,6.68181818 L202.079545,6.67954545 Z M240.186364,11.6681818 L240.186364,29.5454545 L244.640909,29.5454545 C246.938278,29.5143152 249.125362,28.5552118 250.704545,26.8863636 C252.307522,25.1920884 253.185769,22.9389801 253.152273,20.6068182 C253.225775,18.2633765 252.36107,15.9874923 250.75,14.2840909 C249.162957,12.6065252 246.952475,11.6604685 244.643182,11.6704545 L240.186364,11.6681818 L240.186364,11.6681818 Z M244.640909,6.05681818 C252.947727,6.05681818 259.231818,12.5 259.231818,20.6068182 C259.231818,28.7136364 252.947727,35.1568182 244.640909,35.1568182 L234.840909,35.1568182 C234.651237,35.1544261 234.47032,35.0766192 234.338124,34.9405845 C234.205927,34.8045498 234.133328,34.6214815 234.136272,34.4318182 L234.136272,6.81818182 C234.136272,6.41590909 234.452273,6.09090909 234.840909,6.09090909 L244.643182,6.05681818 L244.640909,6.05681818 Z M277.768182,13.1659091 L274.320455,22.725 L281.209091,22.725 L277.768182,13.1659091 L277.768182,13.1659091 Z M272.297727,28.1272727 L270.040909,34.4909091 C269.947788,34.7989044 269.657834,35.0046786 269.336364,34.9909091 L264.440909,34.9909091 C264.186968,35.0145753 263.940347,34.8978009 263.797727,34.6863636 C263.652253,34.4727764 263.628981,34.1986926 263.736364,33.9636364 L274.313636,6.375 C274.415031,6.07602782 274.702927,5.88100142 275.018182,5.89772727 L280.495455,5.89772727 C280.81153,5.87995232 281.100651,6.07517866 281.202273,6.375 L291.779545,33.9636364 C291.886262,34.1990834 291.862127,34.4731877 291.715909,34.6863636 C291.572735,34.8969381 291.326217,35.0127931 291.072727,34.9886364 L286.179545,34.9886364 C285.858075,35.0024059 285.568121,34.7966317 285.475,34.4886364 L283.218182,28.125 L272.297727,28.125 L272.297727,28.1272727 Z M297.454545,13.7863636 C297.454545,9.21818182 301.304545,5.26818182 307.384091,5.26818182 C310.657983,5.19507311 313.82792,6.41974741 316.202273,8.675 C316.348509,8.81323505 316.431371,9.00558699 316.431371,9.20681818 C316.431371,9.40804938 316.348509,9.60040132 316.202273,9.73863636 L313.490909,12.5 C313.359876,12.6355386 313.179431,12.7120737 312.990909,12.7120737 C312.802387,12.7120737 312.621943,12.6355386 312.490909,12.5 C311.213807,11.3030031 309.536523,10.6247972 307.786364,10.5977273 C305.354545,10.5977273 303.556818,12.0454545 303.556818,13.7159091 C303.556818,19.1159091 317.927273,16 317.927273,26.3909091 C317.920455,31.6568182 314.040909,35.6409091 307.181818,35.6409091 C303.333455,35.6803249 299.633807,34.156506 296.929545,31.4181818 C296.783309,31.2799468 296.700447,31.0875948 296.700447,30.8863636 C296.700447,30.6851324 296.783309,30.4927805 296.929545,30.3545455 L299.552273,27.6636364 C299.684295,27.5214145 299.869583,27.4405991 300.063636,27.4405991 C300.25769,27.4405991 300.442978,27.5214145 300.575,27.6636364 C302.225746,29.2998213 304.448633,30.2290811 306.772727,30.2545455 C309.811364,30.2545455 311.813636,28.5909091 311.813636,26.5068182 C311.813636,21.1045455 297.45,24.2227273 297.45,13.8295455 M343.986364,6.64318182 L343.986364,17.5613636 L331.822727,17.5613636 L331.822727,6.64318182 C331.825154,6.45390917 331.752285,6.27142632 331.620153,6.1358853 C331.488022,6.00034427 331.307455,5.92285031 331.118182,5.92045455 L326.504545,5.92045455 C326.315272,5.92285031 326.134705,6.00034427 326.002574,6.1358853 C325.870443,6.27142632 325.797574,6.45390917 325.799941,6.64318182 L325.799941,34.2272727 C325.799941,34.6272727 326.118182,34.9522727 326.504545,34.9522727 L331.118182,34.9522727 C331.504545,34.9522727 331.822727,34.6272727 331.822727,34.2272727 L331.822727,23.1363636 L343.977273,23.1363636 L343.977273,34.2272727 C343.977273,34.6272727 344.295455,34.9522727 344.681818,34.9522727 L349.295455,34.9522727 C349.684091,34.9522727 350.000059,34.6272727 350.000059,34.2272727 L350.000059,6.64318182 C350.002426,6.45390917 349.929557,6.27142632 349.797426,6.1358853 C349.665295,6.00034427 349.484728,5.92285031 349.295455,5.92045455 L344.681818,5.92045455 C344.291247,5.9303753 343.981261,6.25251754 343.986364,6.64318182 Z M69.5568182,9.60227273 C66.3568182,3.67045455 60.0954545,-0.0227272727 53.2863636,-0.000104295832 L1.76818182,-0.000104295832 C1.05693951,0.00288703035 0.41628393,0.430587267 0.140909091,1.08636364 C-0.130616109,1.73835609 0.0204079568,2.48988061 0.522727273,2.98636364 L11.7454545,14.1227273 C12.7363636,15.1090909 14.0863636,15.6613636 15.4909091,15.6613636 L51.8090909,15.6613636 C54.3977273,15.6340909 56.5136364,17.6840909 56.5409091,20.2363636 C56.5681818,22.7886364 54.4931818,24.8795455 51.9045455,24.9045455 L26.8659091,24.9045455 C26.1541087,24.9048377 25.5115105,25.3308499 25.2340909,25.9863636 C24.9599255,26.6391638 25.1101687,27.3930787 25.6136364,27.8909091 L36.8431818,39.0363636 C37.8403052,40.0222272 39.1864312,40.5744003 40.5886364,40.5727311 L51.9136364,40.5727311 C66.6477273,40.5727311 77.7886364,25.0272727 69.5568182,9.59545455" id="Shape"></path>
        </g>
    </g>
</svg>
